packages/calcite-ui-icons/icons/square-brackets-x-16.svg

<?xml version="1.0" encoding="UTF-8"?><svg id="icons" xmlns="http://www.w3.org/2000/svg" viewBox="0 0 16 16"><rect width="16" height="16" style="fill:none;"/><path d="M13,2v-1h3v14h-3v-1h2V2h-2ZM2,14V2h2v-1H1v14h3v-1h-2ZM12,5v-1h-.56836l-2.7135,3.10614-1.53357-3.10614h-1.18457v1h.56348l1.44238,2.92145-2.68945,3.07855h-.31641v1h.77148l2.71411-3.10681,1.53394,3.10681h.98047v-1h-.35938l-1.44275-2.92218,2.68884-3.07782h.11328Z"/></svg>

<svg xmlns="http://www.w3.org/2000/svg" viewBox="0 0 16 16"><path fill="none" d="M0 0h16v16H0z"/><path d="M13 2V1h3v14h-3v-1h2V2h-2zM2 14V2h2V1H1v14h3v-1H2zm10-9V4h-.568L8.718 7.106 7.185 4H6v1h.563l1.443 2.921L5.316 11H5v1h.771l2.715-3.107L10.02 12H11v-1h-.36L9.199 8.078 11.887 5H12z"/></svg>
